X:1
T:When We Walk with the Lord
T:Text: John H. Sammis, 1887 Tune: Daniel B. Towner, 1887
T:669 with refrain TRUST AND OBEY www.hymnary.org/text/when_we_walk_with_the_lord_in_the_light
T:When We Walk with the Lord
T:This hymn is in the public domain.  You may freely use this score for personal and congregational worship.  If you reproduce the score, please credit Hymnary.org as the source. 
T:This hymn is in the public domain.  You may freely use this score for personal and congregational worship.  If you reproduce the score, please credit Hymnary.org as the source. 
T:This hymn is in the public domain.  You may freely use this score for personal and congregational worship.  If you reproduce the score, please credit Hymnary.org as the source. 
Z:This hymn is in the public domain.  You may freely use this score for personal and congregational worship.  If you reproduce the score, please credit Hymnary.org as the source.
%%score ( 1 2 ) ( 3 4 )
L:1/8
M:3/4
K:F
V:1 treble nm="SOPRANO ALTO" snm="S. A."
V:2 treble 
V:3 bass nm="TENOR BASS" snm="T. B."
V:4 bass 
V:1
"^Capo 3:""^F(D)""^1""^2""^3" FG | A2 A2"^C(A)" G2 |"^F(D)" F4 FA |"^C(A)" c2 c2 B2 |"^F(D)" A4 | %5
w: When we|walk with the|Lord in the|light of his|Word,|
w: But we|nev- er can|prove the de-|lights of his|love|
w: Then in|fel- low- ship|sweet we will|sit at his|feet,|
 AA |"^Bb(G)" B2 d2 B2 |"^F(D)" A2 c2 A2 |"^C(A)" G4"^F(D)" FG | A2 A2"^C7(A7)" G2 |1 %10
w: what a|glo- ry he|sheds on our|way! While we|do his good|
w: un- til|all on the|al- tar we|lay; for the|fa- vor he|
w: or we'll|walk by his|side in the|way; what he|says we will|
"^F(D)" F4 FA |"^C(A)" c2 c2 B2 |"^F(D)" A4 AA |"^Bb(G)" B2 d2 B2 || %14
w: will he a-|bides with us|still, and with|all who will|
w: shows and the|joy he be-|stows are for|those who will|
w: do, where he|sends we will|go— nev- er|fear, on- ly|
"^Page 2""^F/C(D/A)" A2 F2"^C7(A7)" G2 |"^F(D)""^Refrain" F6 || c2"^C(A)" G2 c2 | %17
w: ||Trust and o-|
w: trust and o-|bey.||
w: |||
"^F(D)" A4 A"^When We Walk with the Lord"A |"^D(B)" d2 A2 c2 |"^Gm(Em)" B4 BB |"^C7(A7)" B2 A2 G2 | %21
w: bey, for there's|no oth- er|way to be|hap- py in|
w: ||||
w: ||||
"^F(D)" A2 c2 FG |"^F/C(D/A)" A2 F2"^C7(A7)" G2 |"^F(D)" F4 x2 |] %24
w: Je- sus but to|trust and o-|bey.|
w: |||
w: |||
V:2
 CC | F2 F2 E2 | F4 FF | E2 E2 E2 | F4 | FF | F2 F2 F2 | F2 F2 F2 | E4 CC | F2 F2 E2 |1 F4 FF | %11
 E2 E2 E2 | F4 FF | F2 F2 F2 || F2 C2 C2 | C6 || E2 E2 G2 | F4 FF | ^F2 F2 A2 | G4 GG | G2 F2 E2 | %21
 F2 F2 FF | F2 C2 C2 | C4 x2 |] %24
V:3
 A,B, | C2 C2 B,2 | A,4 A,C | C2 G,2 C2 | C4 | CC | D2 B,2 D2 | C2 A,2 C2 | C4 A,B, | C2 C2 B,2 |1 %10
 A,4 A,C | C2 G,2 C2 | C4 CC | D2 B,2 D2 || C2 A,2 B,2 | A,6 || G,2 C2 C2 | C4 CC | A,2 D2 D2 | %19
 D4 CC | C2 C2 C2 | C2 A,2 CD | C2 A,2 B,2 | [F,A,]4 x2 |] %24
V:4
 F,F, | F,2 F,2 C,2 | F,4 F,F, | C,2 C,2 C,2 | F,4 | F,F, | B,,2 B,,2 B,,2 | F,2 F,2 F,2 | %8
 C,4 F,F, | F,2 F,2 C,2 |1 F,4 F,F, | C,2 C,2 C,2 | F,4 F,F, | B,,2 B,,2 B,,2 || C,2 C,2 C,2 | %15
 F,6 || C,2 C,2 E,2 | F,4 F,_E, | D,2 D,2 ^F,2 | G,4 E,D, | C,2 C,2 C,2 | F,2 F,2 A,,B,, | %22
 C,2 C,2 C,2 | F,,4 x2 |] %24

